public/avatar/body/62.svg

<svg xmlns:xlink="http://www.w3.org/1999/xlink" height="82" width="84.85" xmlns="http://www.w3.org/2000/svg"><g transform="translate(37.4 42.25)"><use height="38" transform="translate(-11.95 -17.45)" width="32.05" xlink:href="#a"/><use height="38.95" transform="translate(-12.45 -17.95)" width="33.05" xlink:href="#b"/><use height="16.6" transform="translate(-12.8 2.75)" width="33.65" xlink:href="#c"/><use height="4" transform="translate(8.5 7.65)" width="4" xlink:href="#d"/><use height="4" transform="translate(12.65 5.4)" width="4" xlink:href="#d"/><use height="4" transform="translate(16.1 3.05)" width="4" xlink:href="#d"/><use height="4" transform="translate(-11.55 3.75)" width="4" xlink:href="#d"/><use height="4" transform="translate(-7.8 6.15)" width="4" xlink:href="#d"/><use height="4" transform="translate(-4.15 7.95)" width="4" xlink:href="#d"/></g><defs><use height="38" width="32.05" xlink:href="#e" id="a"/><use height="38.95" width="33.05" xlink:href="#f" id="b"/><use height="4" width="4" xlink:href="#g" id="d"/><path d="M27.35 7.4q2.15 4.15 3.55 8.75 1.45 4.7 1.15 9.5-.35 4.95-4.2 8.1-3.8 3.2-8.75 4.05l-2.6.2q-3.6 0-7.05-1.15-4.65-1.6-7.1-5.5Q-.2 27.4.05 23q.2-4.4 2-9.3Q3.85 8.75 7 5.05 10.1 1.3 14.7.1l1.8-.1q1.9.05 3.7.8 4.75 2.05 7.15 6.6" fill="#d9be71" fill-rule="evenodd" transform="translate(-.05)" id="e"/><path d="M27.35 7.4Q24.95 2.85 20.2.8 17.55-.3 14.7.1 10.1 1.3 7 5.05q-3.15 3.7-4.95 8.65-1.8 4.9-2 9.3-.25 4.4 2.3 8.35 2.45 3.9 7.1 5.5 4.65 1.55 9.65.95 4.95-.85 8.75-4.05 3.85-3.15 4.2-8.1.3-4.8-1.15-9.5-1.4-4.6-3.55-8.75Z" fill="none" stroke="#333" stroke-linecap="round" stroke-linejoin="round" transform="translate(.45 .5)" id="f"/><g id="c"><path d="M1 1.4q7.25 5.8 15.9 8Q24.95 7.15 32.65 1" fill="none" stroke="#666" stroke-linecap="round" stroke-linejoin="round" stroke-width="2"/><path d="M19.85 3.75 20 5.1" fill="none" stroke="#333" stroke-linecap="round" stroke-linejoin="round" transform="translate(12.8 -2.75)"/><path d="m.6 14.95-.05-.6q0-1.85 1.05-3.2 1.1-1.3 2.65-1.3 1.2 0 2.1.75l-.65.55-.95.7L3.3 12.9l-1.6 1.15-1.1.9m6.6-3.3q.75 1.2.75 2.7 0 1.85-1.1 3.15-1.05 1.35-2.6 1.35T1.6 17.5l-.2-.25.45-.55.7-.7.9-.85.8-.75 1.4-1.35 1.55-1.4" fill="#ccc" fill-rule="evenodd" transform="translate(12.8 -2.75)"/><path d="m.6 14.95 1.1-.9 1.6-1.15 1.45-1.05.95-.7.65-.55.5.55.35.5-1.55 1.4-1.4 1.35-.8.75-.9.85-.7.7-.45.55q-.65-.95-.8-2.1v-.2" fill="#fff" fill-rule="evenodd" transform="translate(12.8 -2.75)"/><path d="M6.35 10.6q-.9-.75-2.1-.75-1.55 0-2.65 1.3Q.55 12.5.55 14.35l.05.6m5.75-4.35.5.55.35.5q.75 1.2.75 2.7 0 1.85-1.1 3.15-1.05 1.35-2.6 1.35T1.6 17.5l-.2-.25q-.65-.95-.8-2.1" fill="none" stroke="#666" stroke-linecap="round" stroke-linejoin="round" transform="translate(12.8 -2.75)"/><path d="m4.3 12.5-.6.4v2.25l.6.8.65-.55.4.65L4.3 17.1l-1.45-1.65V12.6l1.5-1.35 1.2 1.3-.5.65-.75-.7" fill="#666" fill-rule="evenodd" transform="translate(12.8 -2.75)"/></g><g id="g"><path d="M.8 1.55Q.2.8 1.15.5q1.15.5.1 1.15Q1 1.8.8 1.55" fill="#fff" fill-rule="evenodd" transform="translate(.5 .5)"/><path d="m2.55 2.55-.25.2-.8.25Q.9 3 .45 2.55 0 2.1 0 1.5 0 .9.45.45.9 0 1.5 0l.8.25.25.2Q3 .9 3 1.5q0 .6-.45 1.05m-1.75-1q.2.25.45.1Q2.3 1 1.15.5.2.8.8 1.55" fill="#ccc" fill-rule="evenodd" transform="translate(.5 .5)"/><path d="m2.55 2.55-.25.2-.8.25Q.9 3 .45 2.55 0 2.1 0 1.5 0 .9.45.45.9 0 1.5 0l.8.25.25.2Q3 .9 3 1.5q0 .6-.45 1.05Z" fill="none" stroke="#999" stroke-linecap="round" stroke-linejoin="round" transform="translate(.5 .5)"/></g></defs></svg>

<?xml version="1.0" encoding="UTF-8" standalone="no"?>
<svg xmlns:xlink="http://www.w3.org/1999/xlink" height="82.0px" width="84.85px" xmlns="http://www.w3.org/2000/svg">
  <g transform="matrix(1.0, 0.0, 0.0, 1.0, 37.4, 42.25)">
    <use height="38.0" transform="matrix(1.0, 0.0, 0.0, 1.0, -11.95, -17.45)" width="32.05" xlink:href="#sprite0"/>
    <use height="38.95" transform="matrix(1.0, 0.0, 0.0, 1.0, -12.45, -17.95)" width="33.05" xlink:href="#sprite1"/>
    <use height="16.6" transform="matrix(1.0, 0.0, 0.0, 1.0, -12.8, 2.75)" width="33.65" xlink:href="#shape2"/>
    <use height="4.0" transform="matrix(1.0, 0.0, 0.0, 1.0, 8.5, 7.65)" width="4.0" xlink:href="#sprite2"/>
    <use height="4.0" transform="matrix(1.0, 0.0, 0.0, 1.0, 12.65, 5.4)" width="4.0" xlink:href="#sprite2"/>
    <use height="4.0" transform="matrix(1.0, 0.0, 0.0, 1.0, 16.1, 3.05)" width="4.0" xlink:href="#sprite2"/>
    <use height="4.0" transform="matrix(1.0, 0.0, 0.0, 1.0, -11.55, 3.75)" width="4.0" xlink:href="#sprite2"/>
    <use height="4.0" transform="matrix(1.0, 0.0, 0.0, 1.0, -7.8, 6.15)" width="4.0" xlink:href="#sprite2"/>
    <use height="4.0" transform="matrix(1.0, 0.0, 0.0, 1.0, -4.15, 7.95)" width="4.0" xlink:href="#sprite2"/>
  </g>
  <defs>
    <g id="sprite0" transform="matrix(1.0, 0.0, 0.0, 1.0, -0.05, 0.0)">
      <use height="38.0" transform="matrix(1.0, 0.0, 0.0, 1.0, 0.05, 0.0)" width="32.05" xlink:href="#shape0"/>
    </g>
    <g id="shape0" transform="matrix(1.0, 0.0, 0.0, 1.0, -0.05, 0.0)">
      <path d="M27.35 7.4 Q29.5 11.55 30.9 16.15 32.35 20.85 32.05 25.65 31.7 30.6 27.85 33.75 24.05 36.95 19.1 37.8 L16.5 38.0 Q12.9 38.0 9.45 36.85 4.8 35.25 2.35 31.35 -0.2 27.4 0.05 23.0 0.25 18.6 2.05 13.7 3.85 8.75 7.0 5.05 10.1 1.3 14.7 0.1 L16.5 0.0 Q18.4 0.05 20.2 0.8 24.95 2.85 27.35 7.4" fill="#d9be71" fill-rule="evenodd" stroke="none"/>
    </g>
    <g id="sprite1" transform="matrix(1.0, 0.0, 0.0, 1.0, 0.45, 0.5)">
      <use height="38.95" transform="matrix(1.0, 0.0, 0.0, 1.0, -0.45, -0.5)" width="33.05" xlink:href="#shape1"/>
    </g>
    <g id="shape1" transform="matrix(1.0, 0.0, 0.0, 1.0, 0.45, 0.5)">
      <path d="M27.35 7.4 Q24.95 2.85 20.2 0.8 17.55 -0.3 14.7 0.1 10.1 1.3 7.0 5.05 3.85 8.75 2.05 13.7 0.25 18.6 0.05 23.0 -0.2 27.4 2.35 31.35 4.8 35.25 9.45 36.85 14.1 38.4 19.1 37.8 24.05 36.95 27.85 33.75 31.7 30.6 32.05 25.65 32.35 20.85 30.9 16.15 29.5 11.55 27.35 7.4 Z" fill="none" stroke="#333333" stroke-linecap="round" stroke-linejoin="round" stroke-width="1.0"/>
    </g>
    <g id="shape2" transform="matrix(1.0, 0.0, 0.0, 1.0, 12.8, -2.75)">
      <path d="M-11.8 4.15 Q-4.55 9.95 4.1 12.15 12.15 9.9 19.85 3.75" fill="none" stroke="#666666" stroke-linecap="round" stroke-linejoin="round" stroke-width="2.0"/>
      <path d="M19.85 3.75 L20.0 5.1" fill="none" stroke="#333333" stroke-linecap="round" stroke-linejoin="round" stroke-width="1.0"/>
      <path d="M0.6 14.95 L0.55 14.35 Q0.55 12.5 1.6 11.15 2.7 9.85 4.25 9.85 5.45 9.85 6.35 10.6 L5.7 11.15 4.75 11.85 3.3 12.9 1.7 14.05 0.6 14.95 M7.2 11.65 Q7.95 12.85 7.95 14.35 7.95 16.2 6.85 17.5 5.8 18.85 4.25 18.85 2.7 18.85 1.6 17.5 L1.4 17.25 1.85 16.7 2.55 16.0 3.45 15.15 4.25 14.4 5.65 13.05 7.2 11.65" fill="#cccccc" fill-rule="evenodd" stroke="none"/>
      <path d="M0.6 14.95 L1.7 14.05 3.3 12.9 4.75 11.85 5.7 11.15 6.35 10.6 6.85 11.15 7.2 11.65 5.65 13.05 4.25 14.4 3.45 15.15 2.55 16.0 1.85 16.7 1.4 17.25 Q0.75 16.3 0.6 15.15 L0.6 14.95" fill="#ffffff" fill-rule="evenodd" stroke="none"/>
      <path d="M6.35 10.6 Q5.45 9.85 4.25 9.85 2.7 9.85 1.6 11.15 0.55 12.5 0.55 14.35 L0.6 14.95 M6.35 10.6 L6.85 11.15 7.2 11.65 Q7.95 12.85 7.95 14.35 7.95 16.2 6.85 17.5 5.8 18.85 4.25 18.85 2.7 18.85 1.6 17.5 L1.4 17.25 Q0.75 16.3 0.6 15.15" fill="none" stroke="#666666" stroke-linecap="round" stroke-linejoin="round" stroke-width="1.0"/>
      <path d="M4.3 12.5 L3.7 12.9 3.7 15.15 4.3 15.95 4.95 15.4 5.35 16.05 4.3 17.1 2.85 15.45 2.85 12.6 4.35 11.25 5.55 12.55 5.05 13.2 4.3 12.5" fill="#666666" fill-rule="evenodd" stroke="none"/>
    </g>
    <g id="sprite2" transform="matrix(1.0, 0.0, 0.0, 1.0, 0.5, 0.5)">
      <use height="4.0" transform="matrix(1.0, 0.0, 0.0, 1.0, -0.5, -0.5)" width="4.0" xlink:href="#shape3"/>
    </g>
    <g id="shape3" transform="matrix(1.0, 0.0, 0.0, 1.0, 0.5, 0.5)">
      <path d="M0.8 1.55 Q0.2 0.8 1.15 0.5 2.3 1.0 1.25 1.65 1.0 1.8 0.8 1.55" fill="#ffffff" fill-rule="evenodd" stroke="none"/>
      <path d="M2.55 2.55 L2.3 2.75 1.5 3.0 Q0.9 3.0 0.45 2.55 0.0 2.1 0.0 1.5 0.0 0.9 0.45 0.45 0.9 0.0 1.5 0.0 L2.3 0.25 2.55 0.45 Q3.0 0.9 3.0 1.5 3.0 2.1 2.55 2.55 M0.8 1.55 Q1.0 1.8 1.25 1.65 2.3 1.0 1.15 0.5 0.2 0.8 0.8 1.55" fill="#cccccc" fill-rule="evenodd" stroke="none"/>
      <path d="M2.55 2.55 L2.3 2.75 1.5 3.0 Q0.9 3.0 0.45 2.55 0.0 2.1 0.0 1.5 0.0 0.9 0.45 0.45 0.9 0.0 1.5 0.0 L2.3 0.25 2.55 0.45 Q3.0 0.9 3.0 1.5 3.0 2.1 2.55 2.55 Z" fill="none" stroke="#999999" stroke-linecap="round" stroke-linejoin="round" stroke-width="1.0"/>
    </g>
  </defs>
</svg>
